!! 00000] TT[WS
!!!OTL: Shao shu
!!!ARE: Asia, China,ÿShanxi Quwo
!! Ethnic Group: Han
!! WI, 117 (1)
!!!SCT: J0137
!!!YEM: Copyright 1995, estate of Helmut Schaffrath.
**kern
*ICvox
*Ivox
*M2/4
*k[f#c#g#]
*A:
{4ee
4ee
=1
16ee
8.ee
4ee
=2
4cc#
8b
8cc#
=3
2b}
=4
{4b
8b
8ee
=5
8cc#
8b
8a
16f#
16a
=6
2b}
=7
{16b
16ee
8g#
16ee
8.g#
=8
8e
8a
16a
16g#
16f#
16e
=9
8d
8e
8B
8d
=10
8e
8a
8d
16c#
16B
=11
8.A
16B
4A}
==
!!!AGN: Xiaodiao. Qingge
!!!ONB: ESAC (Essen Associative Code) Database: CHINA
!!!AMT: simple duple
!!!AIN: vox
!!!EED: Helmut Schaffrath
!!!EEV: 1.0
*-
